X:1
T: Kiss me, Joe
C:
R:Reel
Q: 232
K:G
M:4/4
L:1/8
|:dc|BG cG BG AF|GF GA Bd ef|gf ge dB Ac|BG AF GD EF|
G2 BG AG EF|GF GA Bd ef|gf ge dB GB|AD EF G2 Bc|
|:dB GB ec Ac|fc Af gd Bb|c'e ec' bd db|ag fe dc Bc|
dB GB ec Ac|fc Af gd Bb|c'e ec' bd db|ad ef g2 Bc:|
BG cG BG AF|GF GA Bd ef|gf ge dB Ac|BG AF GD EF|
G2 BG AG EF|GF GA Bd ef|gf ge dB GB|AD EF G2||
